22x22/actions/stock_new-tab.svg

<svg xmlns="http://www.w3.org/2000/svg" viewBox="0 0 22 22"><path style="fill:currentColor;fill-opacity:1;stroke:none;color:#5d656b" d="M3 3v16h10v-1H4V4h4v3h10v6h1V6h-3V3H3zm13 11v2h-2v1h2v2h1v-2h2v-1h-2v-2h-1z"/></svg>

<svg xmlns="http://www.w3.org/2000/svg" viewBox="0 0 22 22">
  <defs id="defs3051">
    <style type="text/css" id="current-color-scheme">
      .ColorScheme-Text {
        color:#5d656b;
      }
      </style>
  </defs>
 <path 
     style="fill:currentColor;fill-opacity:1;stroke:none" 
     d="M 3 3 L 3 4 L 3 18 L 3 19 L 13 19 L 13 18 L 4 18 L 4 4 L 8 4 L 8 7 L 16 7 L 18 7 L 18 13 L 19 13 L 19 6 L 18 6 L 16 6 L 16 3 L 8 3 L 4 3 L 3 3 z M 16 14 L 16 16 L 14 16 L 14 17 L 16 17 L 16 19 L 17 19 L 17 17 L 19 17 L 19 16 L 17 16 L 17 14 L 16 14 z "
	 class="ColorScheme-Text"
     />
</svg>
